Yaru++/mimetypes/48/application-x-ms-dos-executable.svg

<svg height="48" viewBox="0 0 12.699375 12.699376" width="48" xmlns="http://www.w3.org/2000/svg" xmlns:xlink="http://www.w3.org/1999/xlink"><linearGradient id="a" gradientTransform="matrix(0 .26457032 -.26457032 0 28.573637 -84.794762)" gradientUnits="userSpaceOnUse" x1="321.99991" x2="365.99991" y1="84.000153" y2="84.000153"><stop offset="0" stop-color="#fff"/><stop offset=".125" stop-color="#fff" stop-opacity=".098039"/><stop offset=".92500001" stop-color="#fff" stop-opacity=".098039"/><stop offset="1" stop-color="#fff" stop-opacity=".498039"/></linearGradient><linearGradient id="b" gradientTransform="matrix(0 -.26457032 .26457032 0 -15.874243 97.229637)" gradientUnits="userSpaceOnUse" x1="320.99991" x2="366.99991" y1="92.000153" y2="76.000153"><stop offset="0" stop-color="#6dc7f1"/><stop offset="1" stop-color="#1a7fd4"/></linearGradient><path d="m3.6134393.39686011c-.6937299 0-1.2399749.0132523-1.6894429.0758616-.4494706.0626076-.8172683.18004087-1.08668285.40307683-.269412.22303616-.4116106.52810136-.4863544.90123396-.0747464.373133-.0893374.8274029-.0859377 1.4044482v3.3004661 3.3020448c-.00336.5761564.011271 1.0301954.085938 1.4029274.074744.373134.2169424.6782.4863544.901235.26941455.223036.63721225.340471 1.08668285.403076.4494733.06261.995713.07586 1.6894429.07586h5.472949c.693738 0 1.2396914-.01323 1.6882334-.07586.448537-.06264.81521-.180464 1.08363-.403581.268425-.223115.40978-.527963.485135-.90073.07536-.372761.09142-.82611.09142-1.4029274v-3.3020448-3.3019834c0-.5768191-.01609-1.0301662-.09142-1.4029309-.075355-.3727643-.216713-.6776115-.485138-.90072811-.26842-.22311665-.635093-.3409478-1.083632-.40358271-.448537-.06263517-.9944957-.07586157-1.6882287-.07586157z" opacity=".1"/><path d="m9.1713023 12.170288c2.6486557 0 3.1448597-.239794 3.1309437-2.5791303v-3.373687-3.3737505c.013943-2.33933898-.482288-2.57913229-3.1309437-2.57913229h-5.6434965c-2.64799435 0-3.13093835.23976686-3.13093835 2.57913229v3.3737505 3.373687c0 2.3393633.482944 2.5791303 3.13094095 2.5791303z" fill="url(#b)"/><path d="m3.5277767.26457495c-2.64799435 0-3.13091985.23967849-3.13091985 2.57904395v3.3737883.417525c.00405.0001064.00773-.0001868.011879 0 .011059.0008467.021986.0013.033071.00206.011588.0008466.022806.00185.035138.0031l-.00106-.00103c.073069.00432.1464767.00674.2201304.00723l-.0005291.0005291c.00466-.0002127.00889.0001064.01344 0 .019446.0000532.038402-.0003175.057875-.0005291.29288195.00691.33275005.1369175.44697825.4180417l.057359.1545109c.1576485.4377802.2907248.4208991.6619434.3296794.3731552-.0829414.50044-.1268051.4474969-.5890822l-.0175675-.1638063c-.022356-.3026216-.04445-.4369347.2149634-.5730636.017541-.00847.03532-.017147.052708-.025838.00399-.00185.0073-.00382.011376-.00568h.0005291c.065643-.033072.1298221-.068172.1932607-.1043814l-.0005291.00103c.010503-.00657.020478-.011668.030486-.01757.0096-.00559.018864-.011395.02842-.017052.2592841-.142769.3585033-.049604.5988998.1374528l.1271189.1048971c.3554159.3003058.4625457.2191351.7384211-.0454731.2816907-.2584082.3694857-.3598952.0924964-.7337693l-.0966316-.1333186c-.1837627-.2701448-.2702428-.3709927-.060457-.6629759l-.00672.0031c.042411-.064405.083046-.129776.121951-.1963606v.00723c.1686027-.3175455.2974855-.2851123.6211185-.2402795l.1622557.027904c.4579527.0823657.5098614-.0416413.61647-.4087408.1147468-.3646327.1400291-.4968068-.286789-.6820951l-.1503712-.0666596c-.2742932-.1324542-.4015039-.1802068-.3885876-.4759165.0007937-.011064.00132-.021988.00212-.033071.0007938-.011594.00159-.022814.00265-.035138l-.0005291.00103c.00431-.072897.00725-.1461333.00775-.219614v-.0005291c-.0001746-.00445.0001006-.00853 0-.012919.0000529-.019438-.0002646-.038919-.0005291-.058391.0069-.2928813.1369066-.3327492.4180337-.4469785l.1545064-.056841c.4377819-.1576461.4214156-.2912406.330197-.6624595-.0829428-.37315395-.1273218-.49992256-.5896002-.44697912l-.1638061.0170516c-.3026235.0223509-.4369352.0444502-.5730646-.21496338-.00847-.0175384-.016641-.0348024-.025319-.0521905-.00185-.004-.00434-.007299-.00619-.0113686v-.0005291c-.032435-.06422423-.0664799-.12746923-.1018636-.18961045z" fill="#234db8" opacity=".5"/><path d="m8.6886123 3.8311469c-.489262-.00544-.660439.012681-.7292589.6042731l-.026166.2090714c-.060388.3836865-.071841.5574877-.4348557.651506-.024314.00543-.048773.010951-.072979.016713-.00571.00119-.010741.00238-.016615.00353l.0007937.0003174c-.09165.02211-.1822757.046709-.2720841.073393l.00106-.00114c-.015001.00513-.028666.00927-.042871.013702-.013599.00416-.027248.0081-.040799.012353-.3647891.102333-.4612488-.042342-.7063177-.3455787l-.1274779-.168067c-.1776986-.2389631-.305666-.3409383-.4420203-.3520169-.017038-.0014-.034383-.00138-.0518 0-.121906.00956-.2555511.084413-.439737.1935004-.426432.2399195-.5654796.3410314-.3292818.8877755l.081699.1942272c.1502472.390283.2283695.5412354-.1182388.8439679l.00923-.00209c-.07164.067904-.1413732.1377438-.2092804.2093828l.00185-.00924c-.3027291.3466094-.4536797.2684887-.8439633.1182397l-.1942263-.0819057c-.1708596-.0738119-.2981046-.1109049-.3997711-.1140859-.2236598-.0069979-.3229583.1502993-.487902.4434725-.2493443.4209939-.3194105.5782624.1585173.9336589l.1679624.1273742c.3032373.2450713.4479123.3416341.3455818.7064208-.00426.013551-.0082.0271-.012355.040693-.00444.014205-.00836.027874-.013493.042873l.00106-.0008201c-.026685.089809-.051284.1804345-.073394.2720838l-.0001058-.0007408c-.00106.00587-.00265.010887-.00373.01661-.00577.024206-.011271.048443-.016721.07277-.094015.3630143-.2676103.374676-.651298.4350642l-.2090714.026161c-.5915925.06882-.6097129.2399954-.6042734.7292554-.00545.489265.012673.660338.6042734.729156l.2090714.02627c.3836877.06039.5572829.07194.651298.434961.00542.02431.010953.04856.016721.07277.00106.0057.00265.01085.00373.01672l.0001058-.000794c.020901.08659.044146.172294.069138.257239h1.5684464a3.9912338 3.9912328 0 0 1 -.3115316-1.536375 3.9912338 3.9912328 0 0 1 3.9912553-3.9912509 3.9912338 3.9912328 0 0 1 3.6139087 2.3078848v-2.4397226c-.144615-.1887005-.09876-.3383928 0-.5952417v-1.0461256c-.059971-.0398638-.130846-.0807082-.212498-.1266471-.210497-.1246719-.35518-.2045785-.491537-.1935004-.136354.01108-.264425.1130538-.442124.3520169l-.127478.167963c-.245068.303237-.341528.4480146-.706315.3456844-.01355-.00426-.02721-.0082-.0408-.012353-.01421-.00443-.02787-.00837-.04287-.013496l.0011.000926c-.08981-.026682-.180534-.051283-.2721868-.073393l.000794-.0001063c-.0059-.00116-.0109-.00257-.01662-.00374-.02421-.00576-.04855-.011276-.07288-.016713-.3630479-.0940131-.3746019-.2677106-.4349929-.6513979l-.026166-.2089677c-.068809-.5916253-.239997-.6099195-.729259-.6044792z" fill="#aee3f8" opacity=".6"/><path d="m3.5280915.26458738c-2.64865575 0-3.14486005.23979331-3.13094365 2.57913202v3.3736878 3.3737505c-.013943 2.3393363.4822879 2.5791303 3.13094365 2.5791303h5.6434968c2.6479937 0 3.1309377-.239767 3.1309377-2.5791303v-3.3737505-3.3736878c0-2.33936516-.482944-2.57913202-3.1309407-2.57913202z" fill="none" opacity=".4" stroke="#000" stroke-width=".26457"/><path d="m3.5282953.39686011c-1.3203355 0-2.0823034.073096-2.4829317.38445375-.20031405.15567873-.32743475.37132914-.40873995.70379834-.081302.3324691-.1104052.7778449-.1069657 1.35799v3.374305 3.374305c-.00347.5801438.025663 1.0255188.1069657 1.3579878.081305.332467.2084259.548116.40873995.7038.400631.311354 1.1625962.384452 2.4829317.384452h5.643306c1.3200017 0 2.0782047-.0732 2.4772457-.384452.199518-.155631.326197-.371618.408224-.704316.08202-.332697.113165-.7777.113165-1.3579885v-3.3737883-3.3737883c0-.5802898-.03114-1.0252928-.113165-1.35799-.082027-.3326969-.208703-.54868552-.408224-.70431504-.399041-.31125878-1.157241-.38445375-2.4772457-.38445375zm.6355878.2904072c1.8380679.00021959 3.6803399.00089954 5.5161882.0144693.5669627.0219408 1.1811237-.0390773 1.6995547.24648434.342907.18393655.409719.59536905.468165.94304865.04644.5828189.02421 1.1752818.03669 1.7646632.006 2.2434325.02037 4.489492-.02119 6.7325892-.04273.392419-.100894.874615-.475915 1.096002-.424767.219252-.919517.239814-1.3884778.25217-2.5133492.01794-5.0332651.0223-7.5464556-.0047-.4175383-.030152-.8652892-.063491-1.2257081-.296564-.32529445-.263348-.36003255-.721586-.39788985-1.109439-.0336534-2.380756-.0221181-4.7634496-.0139429-7.1454633.0263777-.6300147-.0649203-1.2963951.18654325-1.8943647.1776986-.39942713.652359-.49208865 1.0422616-.54412593.7042015-.0837582 1.4132922-.03889766 2.1201792-.05477452z" fill="url(#a)" opacity=".7"/></svg>

<?xml version="1.0" encoding="UTF-8" standalone="no"?>
<svg
   xmlns:dc="http://purl.org/dc/elements/1.1/"
   xmlns:cc="http://creativecommons.org/ns#"
   xmlns:rdf="http://www.w3.org/1999/02/22-rdf-syntax-ns#"
   xmlns:svg="http://www.w3.org/2000/svg"
   xmlns="http://www.w3.org/2000/svg"
   xmlns:xlink="http://www.w3.org/1999/xlink"
   xmlns:sodipodi="http://sodipodi.sourceforge.net/DTD/sodipodi-0.dtd"
   xmlns:inkscape="http://www.inkscape.org/namespaces/inkscape"
   height="48"
   viewBox="0 0 12.699375 12.699376"
   width="48"
   version="1.1"
   id="svg33"
   sodipodi:docname="application-x-ms-dos-executable.svg"
   inkscape:version="0.92.5 (2060ec1f9f, 2020-04-08)">
  <metadata
     id="metadata39">
    <rdf:RDF>
      <cc:Work
         rdf:about="">
        <dc:format>image/svg+xml</dc:format>
        <dc:type
           rdf:resource="http://purl.org/dc/dcmitype/StillImage" />
      </cc:Work>
    </rdf:RDF>
  </metadata>
  <defs
     id="defs37">
    <linearGradient
       inkscape:collect="always"
       xlink:href="#linearGradient927"
       id="linearGradient1686-0"
       x1="321.99991"
       y1="84.000153"
       x2="365.99991"
       y2="84.000153"
       gradientUnits="userSpaceOnUse"
       gradientTransform="matrix(0,0.26457032,-0.26457032,0,28.573637,-84.794762)" />
    <linearGradient
       inkscape:collect="always"
       id="linearGradient927">
      <stop
         style="stop-color:#ffffff;stop-opacity:1;"
         offset="0"
         id="stop923" />
      <stop
         id="stop933"
         offset="0.125"
         style="stop-color:#ffffff;stop-opacity:0.09803922" />
      <stop
         id="stop931"
         offset="0.92500001"
         style="stop-color:#ffffff;stop-opacity:0.09803922" />
      <stop
         style="stop-color:#ffffff;stop-opacity:0.49803922"
         offset="1"
         id="stop925" />
    </linearGradient>
    <linearGradient
       inkscape:collect="always"
       xlink:href="#linearGradient6088"
       id="linearGradient1686"
       x1="320.99991"
       y1="92.000153"
       x2="366.99991"
       y2="76.000153"
       gradientUnits="userSpaceOnUse"
       gradientTransform="matrix(0,-0.26457032,0.26457032,0,-15.874243,97.229637)" />
    <linearGradient
       id="linearGradient6088"
       inkscape:collect="always">
      <stop
         style="stop-color:#6dc7f1;stop-opacity:1"
         offset="0"
         id="stop6084" />
      <stop
         style="stop-color:#1a7fd4;stop-opacity:1"
         offset="1"
         id="stop6086" />
    </linearGradient>
  </defs>
  <sodipodi:namedview
     pagecolor="#ffffff"
     bordercolor="#666666"
     borderopacity="1"
     objecttolerance="10"
     gridtolerance="10"
     guidetolerance="10"
     inkscape:pageopacity="0"
     inkscape:pageshadow="2"
     inkscape:window-width="1920"
     inkscape:window-height="1016"
     id="namedview35"
     showgrid="false"
     inkscape:zoom="4.9166667"
     inkscape:cx="24"
     inkscape:cy="24"
     inkscape:window-x="0"
     inkscape:window-y="27"
     inkscape:window-maximized="1"
     inkscape:current-layer="svg33" />
  <linearGradient
     id="a"
     gradientUnits="userSpaceOnUse"
     x1="344"
     x2="344"
     y1="62"
     y2="106">
    <stop
       offset="0"
       stop-color="#fff"
       id="stop2" />
    <stop
       offset=".125"
       stop-color="#fff"
       stop-opacity=".098039"
       id="stop4" />
    <stop
       offset=".92500001"
       stop-color="#fff"
       stop-opacity=".098039"
       id="stop6" />
    <stop
       offset="1"
       stop-color="#fff"
       stop-opacity=".498039"
       id="stop8" />
  </linearGradient>
  <clipPath
     id="b">
    <path
       d="m335.73108 62c-8.82418 0-9.77365.90635-9.7304 9.74838v12.25162 12.25162c-.0433 8.84203.90622 9.74838 9.7304 9.74838h16.53919c8.82418 0 9.7304-.90625 9.7304-9.74838v-12.25162-12.25162c0-8.84213-.90622-9.74838-9.7304-9.74838z"
       id="path11" />
  </clipPath>
  <linearGradient
     id="c"
     gradientTransform="matrix(0 -.02997086 .02997 0 -3.039509 13.625372)"
     gradientUnits="userSpaceOnUse"
     x1="459.03448"
     x2="35.310345"
     y1="419.23337"
     y2="207.36522">
    <stop
       offset="0"
       stop-color="#f2f2f2"
       id="stop14" />
    <stop
       offset="1"
       stop-color="#f9f9f9"
       id="stop16" />
  </linearGradient>
  <path
     style="color:#000000;font-style:normal;font-variant:normal;font-weight:normal;font-stretch:normal;font-size:medium;line-height:normal;font-family:sans-serif;font-variant-ligatures:normal;font-variant-position:normal;font-variant-caps:normal;font-variant-numeric:normal;font-variant-alternates:normal;font-feature-settings:normal;text-indent:0;text-align:start;text-decoration:none;text-decoration-line:none;text-decoration-style:solid;text-decoration-color:#000000;letter-spacing:normal;word-spacing:normal;text-transform:none;writing-mode:lr-tb;direction:ltr;text-orientation:mixed;dominant-baseline:auto;baseline-shift:baseline;text-anchor:start;white-space:normal;shape-padding:0;clip-rule:nonzero;display:inline;overflow:visible;visibility:visible;opacity:0.1;isolation:auto;mix-blend-mode:normal;color-interpolation:sRGB;color-interpolation-filters:linearRGB;solid-color:#000000;solid-opacity:1;vector-effect:none;fill:#000000;fill-opacity:1;fill-rule:nonzero;stroke:none;stroke-width:0.52914071;stroke-linecap:butt;stroke-linejoin:miter;stroke-miterlimit:4;stroke-dasharray:none;stroke-dashoffset:0;stroke-opacity:1;marker:none;color-rendering:auto;image-rendering:auto;shape-rendering:auto;text-rendering:auto;enable-background:accumulate"
     d="m 3.6134393,0.39686011 c -0.6937299,0 -1.2399749,0.0132523 -1.6894429,0.0758616 C 1.4745258,0.53532931 1.1067281,0.65276258 0.83731355,0.87579854 0.56790155,1.0988347 0.42570295,1.4038999 0.35095915,1.7770325 0.27621275,2.1501655 0.26162175,2.6044354 0.26502145,3.1814807 v 3.3004661 3.3020448 c -0.00336,0.5761564 0.011271,1.0301954 0.085938,1.4029274 0.074744,0.373134 0.2169424,0.6782 0.4863544,0.901235 0.26941455,0.223036 0.63721225,0.340471 1.08668285,0.403076 0.4494733,0.06261 0.995713,0.07586 1.6894429,0.07586 h 5.472949 c 0.693738,0 1.2396914,-0.01323 1.6882334,-0.07586 0.448537,-0.06264 0.81521,-0.180464 1.08363,-0.403581 0.268425,-0.223115 0.40978,-0.527963 0.485135,-0.90073 0.07536,-0.372761 0.09142,-0.82611 0.09142,-1.4029274 V 6.4819468 3.1799634 c 0,-0.5768191 -0.01609,-1.0301662 -0.09142,-1.4029309 C 12.268032,1.4042682 12.126674,1.099421 11.858249,0.87630439 11.589829,0.65318774 11.223156,0.53535659 10.774617,0.47272168 10.32608,0.41008651 9.7801213,0.39686011 9.0863883,0.39686011 Z"
     id="path1020"
     inkscape:connector-curvature="0"
     sodipodi:nodetypes="sccsccccccsscccscsccsss" />
  <path
     style="color:#000000;display:inline;overflow:visible;visibility:visible;fill:url(#linearGradient1686);fill-opacity:1;fill-rule:nonzero;stroke:none;stroke-width:0.26457033;marker:none;enable-background:accumulate"
     d="m 9.1713023,12.170288 c 2.6486557,0 3.1448597,-0.239794 3.1309437,-2.5791303 V 6.2174707 2.8437202 C 12.316189,0.50438122 11.819958,0.26458791 9.1713023,0.26458791 H 3.5278058 c -2.64799435,0 -3.13093835,0.23976686 -3.13093835,2.57913229 v 3.3737505 3.373687 c 0,2.3393633 0.482944,2.5791303 3.13094095,2.5791303 z"
     id="path964"
     inkscape:connector-curvature="0"
     sodipodi:nodetypes="scccssscsss" />
  <path
     inkscape:connector-curvature="0"
     style="color:#000000;display:inline;overflow:visible;visibility:visible;opacity:0.5;fill:#234db8;fill-opacity:1;fill-rule:nonzero;stroke:none;stroke-width:0.05315028;marker:none;enable-background:accumulate"
     d="m 3.5277767,0.26457495 c -2.64799435,0 -3.13091985,0.23967849 -3.13091985,2.57904395 v 3.3737883 0.417525 c 0.00405,1.064e-4 0.00773,-1.868e-4 0.011879,0 0.011059,8.467e-4 0.021986,0.0013 0.033071,0.00206 0.011588,8.466e-4 0.022806,0.00185 0.035138,0.0031 l -0.00106,-0.00103 c 0.073069,0.00432 0.1464767,0.00674 0.2201304,0.00723 l -5.291e-4,5.291e-4 c 0.00466,-2.127e-4 0.00889,1.064e-4 0.01344,0 0.019446,5.32e-5 0.038402,-3.175e-4 0.057875,-5.291e-4 0.29288195,0.00691 0.33275005,0.1369175 0.44697825,0.4180417 l 0.057359,0.1545109 C 1.4287869,7.656625 1.5618632,7.6397439 1.9330818,7.5485242 2.306237,7.4655828 2.4335218,7.4217191 2.3805787,6.959442 L 2.3630112,6.7956357 C 2.3406552,6.4930141 2.3185612,6.358701 2.5779746,6.2225721 c 0.017541,-0.00847 0.03532,-0.017147 0.052708,-0.025838 0.00399,-0.00185 0.0073,-0.00382 0.011376,-0.00568 0,0 5.291e-4,0 5.291e-4,0 0.065643,-0.033072 0.1298221,-0.068172 0.1932607,-0.1043814 l -5.291e-4,0.00103 c 0.010503,-0.00657 0.020478,-0.011668 0.030486,-0.01757 0.0096,-0.00559 0.018864,-0.011395 0.02842,-0.017052 0.2592841,-0.142769 0.3585033,-0.049604 0.5988998,0.1374528 L 3.620244,6.2954306 C 3.9756599,6.5957364 4.0827897,6.5145657 4.3586651,6.2499575 4.6403558,5.9915493 4.7281508,5.8900623 4.4511615,5.5161882 L 4.3545299,5.3828696 C 4.1707672,5.1127248 4.0842871,5.0118769 4.2940729,4.7198937 l -0.00672,0.0031 c 0.042411,-0.064405 0.083046,-0.129776 0.121951,-0.1963606 v 0.00723 C 4.5779066,4.2163176 4.7067894,4.2487508 5.0304224,4.2935836 l 0.1622557,0.027904 C 5.6506308,4.4038533 5.7025395,4.2798463 5.8091481,3.9127468 5.9238949,3.5481141 5.9491772,3.41594 5.5223591,3.2306517 L 5.3719879,3.1639921 C 5.0976947,3.0315379 4.970484,2.9837853 4.9834003,2.6880756 c 7.937e-4,-0.011064 0.00132,-0.021988 0.00212,-0.033071 7.938e-4,-0.011594 0.00159,-0.022814 0.00265,-0.035138 l -5.291e-4,0.00103 c 0.00431,-0.072897 0.00725,-0.1461333 0.00775,-0.219614 v -5.291e-4 c -1.746e-4,-0.00445 1.006e-4,-0.00853 0,-0.012919 5.29e-5,-0.019438 -2.646e-4,-0.038919 -5.291e-4,-0.058391 0.0069,-0.2928813 0.1369066,-0.3327492 0.4180337,-0.4469785 L 5.5674022,1.825624 C 6.0051841,1.6679779 5.9888178,1.5343834 5.8975992,1.1631645 5.8146564,0.79001055 5.7702774,0.66324194 5.307999,0.71618538 L 5.1441929,0.73323698 C 4.8415694,0.75558788 4.7072577,0.77768718 4.5711283,0.5182736 4.5626583,0.5007352 4.5544873,0.4834712 4.5458093,0.4660831 c -0.00185,-0.004 -0.00434,-0.007299 -0.00619,-0.0113686 V 0.4541854 C 4.5071843,0.38996117 4.4731394,0.32671617 4.4377557,0.26457495 Z"
     id="path6431-6" />
  <path
     style="color:#000000;display:inline;overflow:visible;visibility:visible;opacity:0.6;fill:#aee3f8;fill-opacity:1;fill-rule:nonzero;stroke:none;stroke-width:0.05315028;marker:none;enable-background:accumulate"
     d="M 8.6886123,3.8311469 C 8.1993503,3.8257069 8.0281733,3.8438279 7.9593534,4.43542 l -0.026166,0.2090714 c -0.060388,0.3836865 -0.071841,0.5574877 -0.4348557,0.651506 -0.024314,0.00543 -0.048773,0.010951 -0.072979,0.016713 -0.00571,0.00119 -0.010741,0.00238 -0.016615,0.00353 l 7.937e-4,3.174e-4 c -0.09165,0.02211 -0.1822757,0.046709 -0.2720841,0.073393 l 0.00106,-0.00114 c -0.015001,0.00513 -0.028666,0.00927 -0.042871,0.013702 -0.013599,0.00416 -0.027248,0.0081 -0.040799,0.012353 C 6.6900482,5.5171988 6.5935885,5.3725238 6.3485196,5.0692871 L 6.2210417,4.9012201 C 6.0433431,4.662257 5.9153757,4.5602818 5.7790214,4.5492032 c -0.017038,-0.0014 -0.034383,-0.00138 -0.0518,0 -0.121906,0.00956 -0.2555511,0.084413 -0.439737,0.1935004 C 4.8610524,4.9826231 4.7220048,5.083735 4.9582026,5.6304791 l 0.081699,0.1942272 c 0.1502472,0.390283 0.2283695,0.5412354 -0.1182388,0.8439679 l 0.00923,-0.00209 C 4.8592528,6.7344882 4.7895196,6.804328 4.7216124,6.875967 l 0.00185,-0.00924 C 4.4207333,7.2133364 4.2697827,7.1352157 3.8794991,6.9849667 L 3.6852728,6.903061 C 3.5144132,6.8292491 3.3871682,6.7921561 3.2855017,6.7889751 3.0618419,6.7819772 2.9625434,6.9392744 2.7975997,7.2324476 2.5482554,7.6534415 2.4781892,7.81071 2.956117,8.1661065 l 0.1679624,0.1273742 c 0.3032373,0.2450713 0.4479123,0.3416341 0.3455818,0.7064208 -0.00426,0.013551 -0.0082,0.0271 -0.012355,0.040693 -0.00444,0.014205 -0.00836,0.027874 -0.013493,0.042873 l 0.00106,-8.201e-4 c -0.026685,0.089809 -0.051284,0.1804345 -0.073394,0.2720838 l -1.058e-4,-7.408e-4 c -0.00106,0.00587 -0.00265,0.010887 -0.00373,0.01661 -0.00577,0.024206 -0.011271,0.048443 -0.016721,0.07277 -0.094015,0.3630143 -0.2676103,0.374676 -0.651298,0.4350642 L 2.490553,9.9045956 c -0.5915925,0.06882 -0.6097129,0.2399954 -0.6042734,0.7292554 -0.00545,0.489265 0.012673,0.660338 0.6042734,0.729156 l 0.2090714,0.02627 c 0.3836877,0.06039 0.5572829,0.07194 0.651298,0.434961 0.00542,0.02431 0.010953,0.04856 0.016721,0.07277 0.00106,0.0057 0.00265,0.01085 0.00373,0.01672 l 1.058e-4,-7.94e-4 c 0.020901,0.08659 0.044146,0.172294 0.069138,0.257239 H 5.0090636 A 3.9912338,3.9912328 0 0 1 4.697532,10.633798 3.9912338,3.9912328 0 0 1 8.6887873,6.6425471 3.9912338,3.9912328 0 0 1 12.302696,8.9504319 V 6.5107093 c -0.144615,-0.1887005 -0.09876,-0.3383928 0,-0.5952417 V 4.869342 C 12.242725,4.8294782 12.17185,4.7886338 12.090198,4.7426949 11.879701,4.618023 11.735018,4.5381164 11.598661,4.5491945 c -0.136354,0.01108 -0.264425,0.1130538 -0.442124,0.3520169 l -0.127478,0.167963 c -0.245068,0.303237 -0.341528,0.4480146 -0.706315,0.3456844 -0.01355,-0.00426 -0.02721,-0.0082 -0.0408,-0.012353 -0.01421,-0.00443 -0.02787,-0.00837 -0.04287,-0.013496 l 0.0011,9.26e-4 C 10.150364,5.3632538 10.05964,5.3386528 9.9679872,5.3165428 l 7.94e-4,-1.063e-4 c -0.0059,-0.00116 -0.0109,-0.00257 -0.01662,-0.00374 -0.02421,-0.00576 -0.04855,-0.011276 -0.07288,-0.016713 C 9.5162333,5.2019704 9.5046793,5.0282729 9.4442883,4.6445856 L 9.4181223,4.4356179 C 9.3493133,3.8439926 9.1781253,3.8256984 8.6888633,3.8311387 Z"
     id="rect4158-0-7"
     inkscape:connector-curvature="0" />
  <path
     style="color:#000000;display:inline;overflow:visible;visibility:visible;opacity:0.4;fill:none;fill-opacity:1;fill-rule:nonzero;stroke:#000000;stroke-width:0.26457033;stroke-miterlimit:4;stroke-dasharray:none;stroke-opacity:1;marker:none;enable-background:accumulate"
     d="m 3.5280915,0.26458738 c -2.64865575,0 -3.14486005,0.23979331 -3.13094365,2.57913202 v 3.3736878 3.3737505 c -0.013943,2.3393363 0.4822879,2.5791303 3.13094365,2.5791303 h 5.6434968 c 2.6479937,0 3.1309377,-0.239767 3.1309377,-2.5791303 V 6.2174072 2.8437194 c 0,-2.33936516 -0.482944,-2.57913202 -3.1309407,-2.57913202 z"
     id="path958"
     inkscape:connector-curvature="0"
     sodipodi:nodetypes="scccssscsss" />
  <path
     style="color:#000000;display:inline;overflow:visible;visibility:visible;opacity:0.7;fill:url(#linearGradient1686-0);fill-opacity:1;fill-rule:nonzero;stroke:none;stroke-width:0.26457033;marker:none;enable-background:accumulate"
     d="m 3.5282953,0.39686011 c -1.3203355,0 -2.0823034,0.073096 -2.4829317,0.38445375 C 0.84504955,0.93699259 0.71792885,1.152643 0.63662365,1.4851122 c -0.081302,0.3324691 -0.1104052,0.7778449 -0.1069657,1.35799 v 3.374305 3.374305 c -0.00347,0.5801438 0.025663,1.0255188 0.1069657,1.3579878 0.081305,0.332467 0.2084259,0.548116 0.40873995,0.7038 0.400631,0.311354 1.1625962,0.384452 2.4829317,0.384452 h 5.643306 c 1.3200017,0 2.0782047,-0.0732 2.4772457,-0.384452 0.199518,-0.155631 0.326197,-0.371618 0.408224,-0.704316 0.08202,-0.332697 0.113165,-0.7777 0.113165,-1.3579885 V 6.2174072 2.8436189 c 0,-0.5802898 -0.03114,-1.0252928 -0.113165,-1.35799 C 11.975044,1.152932 11.848368,0.93694338 11.648847,0.78131386 11.249806,0.47005508 10.491606,0.39686011 9.1716013,0.39686011 Z m 0.6355878,0.2904072 c 1.8380679,2.1959e-4 3.6803399,8.9954e-4 5.5161882,0.0144693 0.5669627,0.0219408 1.1811237,-0.0390773 1.6995547,0.24648434 0.342907,0.18393655 0.409719,0.59536905 0.468165,0.94304865 0.04644,0.5828189 0.02421,1.1752818 0.03669,1.7646632 0.006,2.2434325 0.02037,4.489492 -0.02119,6.7325892 -0.04273,0.392419 -0.100894,0.874615 -0.475915,1.096002 -0.424767,0.219252 -0.919517,0.239814 -1.3884778,0.25217 -2.5133492,0.01794 -5.0332651,0.0223 -7.5464556,-0.0047 C 2.0349043,11.701842 1.5871534,11.668503 1.2267345,11.43543 0.90144005,11.172082 0.86670195,10.713844 0.82884465,10.325991 0.79519125,7.945235 0.80672655,5.5625414 0.81490175,3.1805277 0.84127945,2.550513 0.74998145,1.8841326 1.001445,1.286163 1.1791436,0.88673587 1.653804,0.79407435 2.0437066,0.74203707 2.7479081,0.65827887 3.4569988,0.70313941 4.1638858,0.68726255 Z"
     id="path964-3"
     inkscape:connector-curvature="0" />
</svg>
